images/dether.svg

<svg height="250" viewBox="0 0 250 250" width="250" xmlns="http://www.w3.org/2000/svg"><path d="m250 125c0 69.035156-55.964844 125-125 125s-125-55.964844-125-125 55.964844-125 125-125 125 55.964844 125 125zm0 0" fill="#3c80f1"/><g fill="#fff" fill-rule="evenodd"><path d="m126.503906 34.683594c-41.433594 0-75.144531 33.710937-75.144531 75.148437 0 3.96875.441406 7.988281 1.265625 12.035157.171875.839843 1.140625 1.203124 1.835938.699218.503906-.367187 1.03125-.710937 1.585937-1.019531 2.535156-1.429687 5.40625-2.183594 8.308594-2.183594h.015625c.722656.003907 1.292968-.628906 1.164062-1.339843-.503906-2.777344-.777344-5.515626-.777344-8.191407 0-34.050781 27.699219-61.746093 61.746094-61.746093s61.746094 27.695312 61.746094 61.746093c0 34.054688-43.578125 77.558594-59.171875 92.921875-1.429687 1.410156-3.722656 1.40625-5.152344 0-4.585937-4.519531-11.597656-11.476562-19.203125-19.910156-.105468-.007812-.214844-.011719-.316406-.023438-5.992188-.589843-11.855469-1.996093-17.410156-4.167968-.34375-.136719-.691406-.273438-1.035156-.414063-1.105469-.457031-2.082032.878907-1.320313 1.800781 10.007813 12.160157 20.921875 23.4375 30.695313 33.058594 3.078124 3.03125 7.121093 4.542969 11.167968 4.542969 4.042969 0 8.089844-1.511719 11.167969-4.546875 27.464844-27.039062 63.976563-67.160156 63.976563-103.261719 0-41.4375-33.710938-75.148437-75.144532-75.148437"/><path d="m157.757812 117.421875c-.035156 1.054687-.082031 2.101563-.171874 3.132813-.34375 4.128906-1.15625 7.980468-2.664063 11.484374-1.5 3.511719-3.726563 6.769532-6.480469 9.988282l.078125.070312c-5.207031 5.796875-11.726562 10.574219-18.984375 13.59375-7.238281 3.03125-15.15625 4.375-22.804687 3.601563-7.386719-.714844-14.460938-3.425781-20.53125-7.789063 1.859375-.070312 3.777343-.332031 5.742187-.882812 1.613282-.457032 3.261719-1.121094 4.835938-2.074219 1.574218-.9375 3.074218-2.179687 4.3125-3.644531 1.253906-1.457032 2.21875-3.128906 2.910156-4.816406.671875-1.691407 1.078125-3.394532 1.292969-5.027344.222656-1.59375.207031-3.367188.203125-4.359375v-49.210938l.003906-.066406c0-.046875 0-.089844.007812-.132813.003907-.089843.015626-.175781.027344-.257812.027344-.171875.066406-.335938.125-.492188.226563-.636718.726563-1.210937 1.332032-1.527343.300781-.167969.625-.265625.96875-.304688.085937-.007812.171874-.019531.261718-.019531l.066406-.003906h14.179688l.347656.015625c.460938.023437.917969.003906 1.386719.054687 3.714844.234375 7.507813 1.324219 11.085937 2.980469 7.179688 3.324219 13.445313 9.046875 17.488282 15.871094 1.007812 1.710937 1.878906 3.488281 2.609375 5.316406.71875 1.832031 1.265625 3.714844 1.675781 5.621094.421875 1.90625.621094 3.847656.695312 5.792969.003907.5.042969.945312.027344 1.492187zm13.390626-3.535156c-.097657-2.714844-.394532-5.429688-.972657-8.085938-.566406-2.65625-1.332031-5.265625-2.320312-7.777343-.996094-2.511719-2.1875-4.929688-3.546875-7.242188-5.496094-9.210938-13.621094-16.640625-23.375-21.195312-4.878906-2.253907-10.199219-3.824219-15.8125-4.199219-.695313-.066407-1.40625-.058594-2.109375-.085938l-.53125-.015625h-14.003907l-.621093.007813c-.492188.011719-.988281.050781-1.480469.109375-1.976562.234375-3.921875.839844-5.675781 1.777344-3.519531 1.867187-6.289063 5.046874-7.640625 8.808593-.339844.941407-.589844 1.910157-.75 2.890625-.074219.496094-.136719.988282-.167969 1.484375-.023437.246094-.03125.492188-.035156.738281l-.007813.597657v49c.003906 1.339843 0 1.90625-.089844 2.628906-.089843.679687-.246093 1.257813-.429687 1.738281-.203125.46875-.417969.839844-.691406 1.152344-.519531.613281-1.324219 1.144531-2.597657 1.511719-1.253906.363281-2.878906.480469-4.582031.347656-1.714843-.140625-3.519531-.515625-5.28125-1.101563-3.523437-1.152343-6.910156-3.105468-9.441406-5.511718l-.011719-.015625c-2.074218-1.972657-5.273437-2.453125-7.898437-.976563-3.226563 1.816406-4.367188 5.902344-2.550781 9.125 4.707031 8.359375 10.972656 16.207032 19.035156 22.191406 4.011718 2.984376 8.449218 5.480469 13.160156 7.316407 4.707031 1.84375 9.679688 3.023437 14.691406 3.519531 10.050782 1.007812 20.175782-.753906 29.304688-4.578125 9.121094-3.832031 17.410156-9.703125 23.804687-17.359375l.082031.070312c3.316407-3.859374 6.46875-8.355468 8.636719-13.445312 2.191407-5.082031 3.28125-10.496094 3.699219-15.65625.113281-1.292969.171875-2.578125.214844-3.855469l.03125-1.902343c.019531-.621094-.023438-1.34375-.035156-2.011719zm0 0"/></g></svg>

<?xml version="1.0" encoding="UTF-8"?>
<svg xmlns="http://www.w3.org/2000/svg" xmlns:xlink="http://www.w3.org/1999/xlink" width="250px" height="250px" viewBox="0 0 250 250" version="1.1">
<g id="surface1">
<path style=" stroke:none;fill-rule:nonzero;fill:rgb(23.529412%,50.196081%,94.509804%);fill-opacity:1;" d="M 250 125 C 250 194.035156 194.035156 250 125 250 C 55.964844 250 0 194.035156 0 125 C 0 55.964844 55.964844 0 125 0 C 194.035156 0 250 55.964844 250 125 Z M 250 125 "/>
<path style=" stroke:none;fill-rule:evenodd;fill:rgb(100%,100%,100%);fill-opacity:1;" d="M 126.503906 34.683594 C 85.070312 34.683594 51.359375 68.394531 51.359375 109.832031 C 51.359375 113.800781 51.800781 117.820312 52.625 121.867188 C 52.796875 122.707031 53.765625 123.070312 54.460938 122.566406 C 54.964844 122.199219 55.492188 121.855469 56.046875 121.546875 C 58.582031 120.117188 61.453125 119.363281 64.355469 119.363281 L 64.371094 119.363281 C 65.09375 119.367188 65.664062 118.734375 65.535156 118.023438 C 65.03125 115.246094 64.757812 112.507812 64.757812 109.832031 C 64.757812 75.78125 92.457031 48.085938 126.503906 48.085938 C 160.550781 48.085938 188.25 75.78125 188.25 109.832031 C 188.25 143.886719 144.671875 187.390625 129.078125 202.753906 C 127.648438 204.164062 125.355469 204.160156 123.925781 202.753906 C 119.339844 198.234375 112.328125 191.277344 104.722656 182.84375 C 104.617188 182.835938 104.507812 182.832031 104.40625 182.820312 C 98.414062 182.230469 92.550781 180.824219 86.996094 178.652344 C 86.652344 178.515625 86.304688 178.378906 85.960938 178.238281 C 84.855469 177.78125 83.878906 179.117188 84.640625 180.039062 C 94.648438 192.199219 105.5625 203.476562 115.335938 213.097656 C 118.414062 216.128906 122.457031 217.640625 126.503906 217.640625 C 130.546875 217.640625 134.59375 216.128906 137.671875 213.09375 C 165.136719 186.054688 201.648438 145.933594 201.648438 109.832031 C 201.648438 68.394531 167.9375 34.683594 126.503906 34.683594 "/>
<path style=" stroke:none;fill-rule:evenodd;fill:rgb(100%,100%,100%);fill-opacity:1;" d="M 157.757812 117.421875 C 157.722656 118.476562 157.675781 119.523438 157.585938 120.554688 C 157.242188 124.683594 156.429688 128.535156 154.921875 132.039062 C 153.421875 135.550781 151.195312 138.808594 148.441406 142.027344 L 148.519531 142.097656 C 143.3125 147.894531 136.792969 152.671875 129.535156 155.691406 C 122.296875 158.722656 114.378906 160.066406 106.730469 159.292969 C 99.34375 158.578125 92.269531 155.867188 86.199219 151.503906 C 88.058594 151.433594 89.976562 151.171875 91.941406 150.621094 C 93.554688 150.164062 95.203125 149.5 96.777344 148.546875 C 98.351562 147.609375 99.851562 146.367188 101.089844 144.902344 C 102.34375 143.445312 103.308594 141.773438 104 140.085938 C 104.671875 138.394531 105.078125 136.691406 105.292969 135.058594 C 105.515625 133.464844 105.5 131.691406 105.496094 130.699219 L 105.496094 81.488281 L 105.5 81.421875 C 105.5 81.375 105.5 81.332031 105.507812 81.289062 C 105.511719 81.199219 105.523438 81.113281 105.535156 81.03125 C 105.5625 80.859375 105.601562 80.695312 105.660156 80.539062 C 105.886719 79.902344 106.386719 79.328125 106.992188 79.011719 C 107.292969 78.84375 107.617188 78.746094 107.960938 78.707031 C 108.046875 78.699219 108.132812 78.6875 108.222656 78.6875 L 108.289062 78.683594 L 122.46875 78.683594 L 122.816406 78.699219 C 123.277344 78.722656 123.734375 78.703125 124.203125 78.753906 C 127.917969 78.988281 131.710938 80.078125 135.289062 81.734375 C 142.46875 85.058594 148.734375 90.78125 152.777344 97.605469 C 153.785156 99.316406 154.65625 101.09375 155.386719 102.921875 C 156.105469 104.753906 156.652344 106.636719 157.0625 108.542969 C 157.484375 110.449219 157.683594 112.390625 157.757812 114.335938 C 157.761719 114.835938 157.800781 115.28125 157.785156 115.828125 Z M 171.148438 113.886719 C 171.050781 111.171875 170.753906 108.457031 170.175781 105.800781 C 169.609375 103.144531 168.84375 100.535156 167.855469 98.023438 C 166.859375 95.511719 165.667969 93.09375 164.308594 90.78125 C 158.8125 81.570312 150.6875 74.140625 140.933594 69.585938 C 136.054688 67.332031 130.734375 65.761719 125.121094 65.386719 C 124.425781 65.320312 123.714844 65.328125 123.011719 65.300781 L 122.480469 65.285156 L 108.476562 65.285156 L 107.855469 65.292969 C 107.363281 65.304688 106.867188 65.34375 106.375 65.402344 C 104.398438 65.636719 102.453125 66.242188 100.699219 67.179688 C 97.179688 69.046875 94.410156 72.226562 93.058594 75.988281 C 92.71875 76.929688 92.46875 77.898438 92.308594 78.878906 C 92.234375 79.375 92.171875 79.867188 92.140625 80.363281 C 92.117188 80.609375 92.109375 80.855469 92.105469 81.101562 L 92.097656 81.699219 L 92.097656 130.699219 C 92.101562 132.039062 92.097656 132.605469 92.007812 133.328125 C 91.917969 134.007812 91.761719 134.585938 91.578125 135.066406 C 91.375 135.535156 91.160156 135.90625 90.886719 136.21875 C 90.367188 136.832031 89.5625 137.363281 88.289062 137.730469 C 87.035156 138.09375 85.410156 138.210938 83.707031 138.078125 C 81.992188 137.9375 80.1875 137.5625 78.425781 136.976562 C 74.902344 135.824219 71.515625 133.871094 68.984375 131.464844 L 68.972656 131.449219 C 66.898438 129.476562 63.699219 128.996094 61.074219 130.472656 C 57.847656 132.289062 56.707031 136.375 58.523438 139.597656 C 63.230469 147.957031 69.496094 155.804688 77.558594 161.789062 C 81.570312 164.773438 86.007812 167.269531 90.71875 169.105469 C 95.425781 170.949219 100.398438 172.128906 105.410156 172.625 C 115.460938 173.632812 125.585938 171.871094 134.714844 168.046875 C 143.835938 164.214844 152.125 158.34375 158.519531 150.6875 L 158.601562 150.757812 C 161.917969 146.898438 165.070312 142.402344 167.238281 137.3125 C 169.429688 132.230469 170.519531 126.816406 170.9375 121.65625 C 171.050781 120.363281 171.109375 119.078125 171.152344 117.800781 L 171.183594 115.898438 C 171.203125 115.277344 171.160156 114.554688 171.148438 113.886719 Z M 171.148438 113.886719 "/>
</g>
</svg>
